X:1
T:Radetsky March
T:Radetsky March
T:Johann Strauss I
C:Johann Strauss I
%%score 1 2 3
L:1/8
Q:1/4=96
M:2/4
K:Bb
V:1 treble nm="Flute" snm="Fl."
V:2 treble transpose=-2 nm="B♭ Clarinet" snm="B♭ Cl."
V:3 treble transpose=-2 nm="B♭ Clarinet" snm="B♭ Cl."
V:1
!f! !>!b/!>!b/!>!b !>!b/!>!b/!>!b | !>!d'!>!c' !>!b>!>!a | g/^f/g/a/ bc' | f2 z!f! d/_d/ | %4
 =dd/_d/ =dd/_d/ | dc B/ z/ d/_d/ | dd/_d/ =dd/_d/ | dg f/ z/ f/d/ | eg f/ z/ f/c/ | %9
 dg f/ z/ f/d/ | c a2 g | z f/=e/!ff! f/g/f/_e/ | dd/_d/ =dd/_d/ | dc Bd/_d/ | dd/_d/ =dd/_d/ | %15
 dg ff/d/ | =ed' c'2 | z c' b2 | a>g f/e/d/c/ | Bb B z |!mf! g4- | g4 | f4- | f3 z | cc/d/ e2 | %25
 dd/e/ f2 | e z z2 | d4 | cc/d/ e2 | dd/e/ f z | z4 | z4 |!f! !>!d'!>!e' !>!d'!>!e' | %33
 !>!d'd/_d/ =dd/_d/ | dd/_d/ =dd/_d/ | dc B/ z/ d/_d/ | dd/_d/ =dd/_d/ | dg f/ z/ f/d/ | %38
 eg f/ z/ f/c/ | dg f/ z/ f/d/ | c a2 g | z f/=e/!ff! f/g/f/_e/ | dd/_d/ =dd/_d/ | dc Bd/_d/ | %44
 dd/_d/ =dd/_d/ | dg ff/d/ | =ed' c'2- | c'c' b2 | a>g f/e/d/c/ | Bb B z |!mf! g4- | g4 | f4- | %53
 f3 z | cc/d/ e2 | dd/e/ f2 | e4 | d4 | cc/d/ e2 | dd/e/ f z | z4 | z4 | !>!d'!>!e' !>!d'!>!e' | %63
 d'd/_d/ =dd/_d/ | dd/_d/ =dd/_d/ | dc B/ z/ d/_d/ | dd/_d/ =dd/_d/ | dg f/ z/ f/d/ | %68
 eg f/ z/ f/c/ | dg f/ z/ f/d/ | c a2 g | z f/=e/!ff! f/g/f/_e/ | dd/_d/ =dd/_d/ | dc Bd/_d/ | %74
 dd/_d/ =dd/_d/ | dg ff/d/ | =ed' c'2- | c'c' b2 |!ff! a>g f/e/d/c/ | Ba!fff! b z!fine! |] %80
[K:F]!mf! c4- | c2 .G2 | .e2 .c2 | .g2 .e2 | .c'2 .c'.c' | .c'2 .c'2 | .c'2 .c'2 | .c'2 .c'2 |: %88
!mp! (CA) (A2- | A2 C2) | (CA) (A2- | A2 B2) | (cf .a) z | .a z .a z | A4- | A2 (GA) | Be g2- | %97
 g2 f2 | (3(ef)e d z | d z d z |1 (cf) .a z || .a z .a z | A4- | A2 C2 :|2 (cf) .a z || (Be) .g z | %106
 f4 | z2 (EF) |:!f! GB !>!e2- | e2 d2 | (3(!>!cd)c .B z | .B z .B z | (Ac) .f z | .f z .f z | F4- | %115
 F2 (EF) | GB e2- | e2 d2 | (3(cd)c .B z | .B z .B z | (Ac) fa | c'2 b.a | .g.f .e.d | .c.B .A.G | %124
!mp! (CA) (A2- | A2 C2) | (CA) (A2- | A2 B2) | (cf) .a z | .a z .a z | TA4- | A2 ((GA)) | Bd g2- | %133
 g2 f2 | (3(ef)e .d z | .d z .d z |1 (cf) .a z || .a z .a z | A4- | A2 (EF) :|2 (cf) .a z || %141
 (Be) .g z | .f2 .f2 | .f2 z2!D.C.!!D.C.!!D.C.! |] %144
V:2
[K:C]!f! !>!e/!>!e/!>!e !>!e/!>!e/!>!e | !>!c!>!B !>!A>!>!G | !>!^F z z ^F | G2 B z |!mp! cG G,G | %5
 EG G,G | EG G,G | EG G,G | FG G,G | EG G,E | G z ^F2 | G z!f! !>!F2 | .E.G .E.G | .E.G .E.G | %14
 .E.G .E.G | .E.G .E.G | !>!^F!>!^f z !>!=f | !>!e!>!e z !>!e | !>!a2 !>!f2 | %19
 !>!e!>!e !>!e!ff!c/B/ | cc/B/ cc/B/ | cf Ac/B/ | cc/B/ cc/B/ | ce Gg | g2 fa | a2 gc' | bb/a/ gf | %27
 aa/g/ f z |!f! G2 z2 | G2 z!ff! !>!c' | !>!b!>!^g !>!a!>!c' | !>!b!>!^g !>!a!>!c' | %32
!ff! !>!e!>!f !>!e!>!f | !>!e z z2 |!mp! EG G,G | EG G,G | EG G,G | EG G,G | FG G,G | EG G,E | %40
 G z ^F2 | G z!f! !>!f2 | .E.G .E.G | .E.G .E.G | .E.G .E.G | .E.G .E.G | !>!^F!>!^f z !>!=f | %47
 !>!e!>!e z !>!e | !>!a2 !>!f2 | !>!e!>!e !>!e!f!c/B/ | cc/B/ cc/B/ | cf Ac/B/ | cc/B/ cc/B/ | %53
 ce Gg | g2 fa | a2 gc' | bb/a/ gf | aa/g/ f z |!f! G2 z2 | G2 z!ff! !>!c' | !>!b!>!^g !>!a!>!c' | %61
 !>!b!>!^g !>!a!>!c' | !>!e!>!f !>!e!>!f | e z z2 |!mp! EG G,G | EG G,G | EG G,G | EG G,G | %68
 FG G,G | EG G,E | d z ^f2 | g z!f! !>!f2 | .E.G .E.G | .E.G .E.G | .E.G .E.G | .E.G .E.G | %76
 ^ff z =f | !>!e!>!e z !>!e |!f! !>!A2 !>!F2 | Ef!fff! e z |][K:G]!mf! d4- | d2 .A2 | .F2 .d2 | %83
 .A2 .f2 | .d2 .d.d | .d2 .d2 | .d2 .d2 | .d2 .d2 |:!mp! (DG) (G2- | G2 G,2) | (DG) (G2- | G2 A2) | %92
 (dg) .b z | .g z .g z | G4- | G2 (AB) | cf f2- | f2 e2 | (3(dg)f e z | c z c z |1 (dg) .g z || %101
 .g z .g z | G4- | G2 D2 :|2 (dg) .b z || (Ad) .f z | B4 | z2 z z |:!f! z2 F2 | z2 F2 | z2 F2 | %111
 z2 F2 | z2 B2 | z2 B2 | z2 B2 | z2 B2 | z2 c2 | z2 c2 | z2 F2 | z2 F2 | G4 | z4 | F4- | F4 | %124
!mp! (DG) (G2- | G2 D2) | (DG) (G2- | G2 A2) | (Bg .b) z | .g z .g z | z2 G2 | z2 (z z) | ce f2- | %133
 f2 e2 | (3(cg)f .f z | .c z .c z |1 (dg) .g z || .g z .g z | G4- | G2 z2 :|2 z2 B2 || z2 c2 | %142
 .B2 .B2 | .B2 z2 |] %144
V:3
[K:C]!f! !>!C/!>!C/!>!C !>!C/!>!C/!>!C | !>!C!>!B, !>!A,>!>!G, | !>!^F, z z D | G2 !>!G, z | %4
!mp! c2 G2 | c2 G2 | c2 G2 | c2 G2 | d2 G2 | c2 G2 | d z D2 | G z!f! !>!G2 | .c.G .c.G | %13
 .c.G .c.G | .c.G .c.G | .c.G .c.G | !>!d!>!d z !>!G | !>!c!>!c z !>!E | !>!F2 !>!G2 | %19
 !>!c!>!c !>!c z |!mf! C z F z | A z c z | C z E z | G z c z | G2 z z | G2 z2 | G2 z2 | %27
 G2 z!ff! G | G2 FA | A2 G!ff!!>!c | !>!B!>!^G !>!A!>!c | !>!B!>!^G !>!A!>!c | %32
!ff! !>!e!>!f !>!e!>!f | !>!e z z z |!mp! c2 G2 | c2 G2 | c2 G2 | c2 G2 | d2 G2 | c2 G2 | d z D2 | %41
 G z!f! !>!G2 | .C.G, .C.G, | .C.G, .C.G, | .C.G, .C.G, | .C.G, .C.G, | !>!D!>!D z !>!G | %47
 !>!c!>!c z !>!E | !>!F2 !>!G2 | !>!c!>!c !>!c z |!mf! C z F z | A z c z | C z E z | G z c z | %54
 G2 z2 | G2 z2 | G2 z2 | G2 z!ff! G | G2 FA | A2 G!ff!!>!c | !>!B!>!^G !>!A!>!c | %61
 !>!B!>!^G !>!A!>!c | !>!e!>!f !>!e!>!f | e z z2 |!mp! c2 G2 | c2 G2 | c2 G2 | c2 G2 | d2 G2 | %69
 c2 G2 | G z D2 | G z!f! !>!G2 | .c.G .c.G | .c.G .c.G | .c.G .c.G | .c.G .c.G | dd z G | %77
 !>!c!>!c z !>!E |!f! !>!F2 !>!G2 | cG!fff! C z |][K:G]!mf! D4- | D2 .A,2 | .F,2 .D2 | .A2 .F2 | %84
 .D2 .D.D | .D2 .D2 | .D2 .D2 | .D2 .D2 |:!mp! G,2 D2 | G2 B2 | G,2 D2 | G2 B2 | G,2 D2 | G2 B2 | %94
 G,2 D2 | G2 D2 | D2 F2 | A2 c2 | D2 F2 | A2 c2 |1 G,2 D2 || G2 B2 | G,2 D2 | G2 B2 :|2 G,2 B,2 || %105
 D2 A2 | G2 G2 | G2 z2 |:!f! F2 A2 | D2 A2 | F2 A2 | D2 A2 | G2 B2 | D2 B2 | G2 B2 | D2 B2 | %116
 F2 A2 | D2 A2 | F2 A2 | D2 A2 | F4 | z4 | D4- | D4 |!mp! G,2 B,2 | D2 B,2 | G,2 B,2 | D2 G2 | %128
 G2 B2 | D2 B2 | G,2 B,2 | D2 G2 | F2 A2 | D2 A2 | F2 A2 | D2 A2 |1 G,2 B,2 || D2 G2 | G,2 B,2 | %139
 D2 G2 :|2 G,2 G2 || D2 A2 | .G2 .G2 | .G2 z2 |] %144

